Mono Glyph Icons/misc/misc-unfilled/dresser.svg

<svg height="48" viewBox="0 -960 960 960" width="48" xmlns="http://www.w3.org/2000/svg"><path d="m132-92v-682q0-40.21 27.1-67.61 27.1-27.39 66.9-27.39h508q40.21 0 67.61 27.39 27.39 27.4 27.39 67.61v682h-95v-80h-508v80zm94-439h216v-243h-216zm293-160h215v-83h-215zm0 160h215v-83h-215zm-126 218h174v-77h-174zm-167-141v205h508v-205zm0 0v205z"/></svg>

<svg xmlns="http://www.w3.org/2000/svg" height="48" viewBox="0 -960 960 960" width="48"><path d="M132-92v-682q0-40.21 27.1-67.61Q186.2-869 226-869h508q40.21 0 67.61 27.39Q829-814.21 829-774v682h-95v-80H226v80h-94Zm94-439h216v-243H226v243Zm293-160h215v-83H519v83Zm0 160h215v-83H519v83ZM393-313h174v-77H393v77ZM226-454v205h508v-205H226Zm0 0v205-205Z"/></svg>
